icon-themes/sifr_svg/cmd/sc_glueescapedirectionleft.svg

<svg viewBox="0 0 16 16" xmlns="http://www.w3.org/2000/svg"><g fill="#555753"><path d="m6 2v4h-4v4h4v4h4v-4h4v-4h-4v-4z" opacity=".35"/><path d="m0 6v4h8a2 2 0 0 0 2-2 2 2 0 0 0 -2-2z"/></g></svg>

<svg xmlns="http://www.w3.org/2000/svg" viewBox="0 0 16 16">
  <path
     style="opacity:0.35;fill:#555753"
     d="M 6,2 V 6 H 2 v 4 h 4 v 4 h 4 v -4 h 4 V 6 H 10 V 2 Z"
     />
  <path
     style="fill:#555753"
     d="M 0 6 L 0 10 L 8 10 A 2 2 0 0 0 10 8 A 2 2 0 0 0 8 6 L 0 6 z "
     />
</svg>
